X:1
T: The Distant Greeting
C:
R:Reel
Q: 232
K:G
M:4/4
L:1/8
|:((3DEF)|GF GA BA GF|EA AB cB AG|Fd dd dd dd|df ed ce df|
gb ag fa gf|e^d eg =dc BA|Ge dc BA GF|GD FD G2:|
|:FA|dA AA fA eA|dA AA gA fA|eA AA aA gA|fe df eA ^GA|
Bg Bg fA Af|eG Ge dF Fd|cB Ad fa ec|dA cA d2:|
